static/assets/images/networks/world-chain.svg

<svg width="256" height="256" viewBox="0 0 256 256" fill="none" xmlns="http://www.w3.org/2000/svg">
<path fill-rule="evenodd" clip-rule="evenodd" d="M119.276 0.29467C26.2525 6.44389 -29.3449 108.998 16.1992 190.428C64.1924 276.237 187.313 278.234 237.689 194.02C290.586 105.592 222.071 -6.50006 119.276 0.29467ZM116.033 24.7105C72.3301 30.2445 37.2478 61.2812 26.9676 103.505C26.2549 106.433 24.7151 114.864 24.7148 115.84C24.7148 116.318 55.9593 116.148 56.089 115.67C56.1525 115.437 56.5521 113.714 56.9772 111.842C63.1259 84.7633 85.0756 63.3484 112.397 57.7722C119.654 56.291 122.315 56.2093 163.755 56.1954L203.141 56.1817L199.911 53.0464C178.167 31.9442 145.652 20.9599 116.033 24.7105ZM158.323 80.3737C120.802 80.5595 119.887 80.5796 116.899 81.2829C102.19 84.7456 90.332 94.0285 83.95 107.078C82.4921 110.06 80.7384 114.737 80.7384 115.645C80.7384 116.018 93.7467 116.096 155.985 116.096H231.231L230.996 114.139C229.768 103.911 224.175 86.1363 220.557 80.9617L219.902 80.0259L208.296 80.1045C201.913 80.1481 179.425 80.2689 158.323 80.3737ZM24.9232 141.869C35.0425 225.288 137.444 261.497 199.556 203.619L203.101 200.315L161.868 200.117C118.998 199.911 119.219 199.918 111.806 198.391C84.9103 192.851 62.8526 171.022 56.8441 143.999L56.0496 140.426L40.3881 140.337L24.727 140.249L24.9232 141.869ZM80.7384 140.621C80.7384 141.495 82.6007 146.427 83.9864 149.221C90.5422 162.444 102.327 171.608 117.239 175.078C120.253 175.78 120.972 175.791 170.283 175.897L220.271 176.005L221.762 173.018C226.054 164.412 231.153 146.926 231.153 140.813C231.153 140.298 225.403 140.256 155.946 140.256C102.593 140.256 80.7384 140.362 80.7384 140.621Z" fill="#040404"/>
<path d="M116.033 24.7105C72.3301 30.2445 37.2478 61.2812 26.9676 103.505C26.2549 106.433 24.7151 114.864 24.7148 115.84C24.7148 116.318 55.9593 116.148 56.089 115.67C56.1525 115.437 56.5521 113.714 56.9772 111.842C63.1259 84.7633 85.0756 63.3484 112.397 57.7722C119.654 56.291 122.315 56.2093 163.755 56.1954L203.141 56.1817L199.911 53.0464C178.167 31.9442 145.652 20.9599 116.033 24.7105Z" fill="white"/>
<path d="M158.323 80.3737C120.802 80.5595 119.887 80.5796 116.899 81.2829C102.19 84.7456 90.332 94.0285 83.95 107.078C82.4921 110.06 80.7384 114.737 80.7384 115.645C80.7384 116.018 93.7467 116.096 155.985 116.096H231.231L230.996 114.139C229.768 103.911 224.175 86.1363 220.557 80.9617L219.902 80.0259L208.296 80.1045C201.913 80.1481 179.425 80.2689 158.323 80.3737Z" fill="white"/>
<path d="M80.7384 140.621C80.7384 141.495 82.6007 146.427 83.9864 149.221C90.5422 162.444 102.327 171.608 117.239 175.078C120.253 175.78 120.972 175.791 170.283 175.897L220.271 176.005L221.762 173.018C226.054 164.412 231.153 146.926 231.153 140.813C231.153 140.298 225.403 140.256 155.946 140.256C102.593 140.256 80.7384 140.362 80.7384 140.621Z" fill="white"/>
<path d="M24.9232 141.869C35.0425 225.288 137.444 261.497 199.556 203.619L203.101 200.315L161.868 200.117C118.998 199.911 119.219 199.918 111.806 198.391C84.9103 192.851 62.8526 171.022 56.8441 143.999L56.0496 140.426L40.3881 140.337L24.727 140.249L24.9232 141.869Z" fill="white"/>
</svg>

<svg xmlns="http://www.w3.org/2000/svg" fill="none" viewBox="0 0 256 256"><path fill="#040404" fill-rule="evenodd" d="M119.276.295C26.253 6.444-29.344 108.998 16.199 190.428c47.993 85.809 171.114 87.806 221.49 3.592C290.586 105.592 222.071-6.5 119.276.295m-3.243 24.415c-43.703 5.534-78.785 36.571-89.065 78.795-.713 2.928-2.253 11.359-2.253 12.335 0 .478 31.244.308 31.374-.17.064-.233.463-1.956.888-3.828 6.149-27.079 28.099-48.494 55.42-54.07 7.257-1.481 9.918-1.563 51.358-1.577l39.386-.013-3.23-3.136c-21.744-21.102-54.259-32.086-83.878-28.335m42.29 55.664c-37.521.186-38.436.206-41.424.909-14.709 3.463-26.567 12.745-32.949 25.795-1.458 2.982-3.212 7.659-3.212 8.567 0 .373 13.009.451 75.247.451h75.246l-.235-1.957c-1.228-10.228-6.821-28.003-10.439-33.177l-.655-.936-11.606.079c-6.383.043-28.871.164-49.973.269m-133.4 61.495c10.12 83.419 112.521 119.628 174.633 61.75l3.545-3.304-41.233-.198c-42.87-.206-42.649-.199-50.062-1.726-26.896-5.54-48.953-27.369-54.962-54.392l-.794-3.573-15.662-.089-15.661-.088zm55.815-1.248c0 .874 1.863 5.806 3.248 8.6 6.556 13.223 18.341 22.387 33.253 25.857 3.014.702 3.733.713 53.044.819l49.988.108 1.491-2.987c4.292-8.606 9.391-26.092 9.391-32.205 0-.515-5.75-.557-75.207-.557-53.353 0-75.208.106-75.208.365" clip-rule="evenodd"/><path fill="#fff" d="M116.033 24.71c-43.703 5.534-78.785 36.571-89.065 78.795-.713 2.928-2.253 11.359-2.253 12.335 0 .478 31.244.308 31.374-.17.064-.233.463-1.956.888-3.828 6.149-27.079 28.099-48.494 55.42-54.07 7.257-1.481 9.918-1.563 51.358-1.577l39.386-.013-3.23-3.136c-21.744-21.102-54.259-32.086-83.878-28.335"/><path fill="#fff" d="M158.323 80.374c-37.521.186-38.436.206-41.424.909-14.709 3.463-26.567 12.745-32.949 25.795-1.458 2.982-3.212 7.659-3.212 8.567 0 .373 13.009.451 75.247.451h75.246l-.235-1.957c-1.228-10.228-6.821-28.003-10.439-33.177l-.655-.936-11.606.079c-6.383.043-28.871.164-49.973.269m-77.585 60.247c0 .874 1.863 5.806 3.248 8.6 6.556 13.223 18.341 22.387 33.253 25.857 3.014.702 3.733.713 53.044.819l49.988.108 1.491-2.987c4.292-8.606 9.391-26.092 9.391-32.205 0-.515-5.75-.557-75.207-.557-53.353 0-75.208.106-75.208.365"/><path fill="#fff" d="M24.923 141.869c10.12 83.419 112.521 119.628 174.633 61.75l3.545-3.304-41.233-.198c-42.87-.206-42.649-.199-50.062-1.726-26.896-5.54-48.953-27.369-54.962-54.392l-.794-3.573-15.662-.089-15.661-.088z"/></svg>
